assets/logos/SVG/SNRG-alt.svg

<svg viewBox="0 0 226.8 226.8" xmlns="http://www.w3.org/2000/svg"><path d="m113.4 0c-62.6 0-113.4 50.8-113.4 113.4s50.8 113.4 113.4 113.4 113.4-50.8 113.4-113.4-50.8-113.4-113.4-113.4zm60.2 149.6-59.6 38.8-60.7-39.7v-22.3l60.7 39.6 46.5-30.2-15.2-9.9-31.9 21-17.5-11.4 49.2-31.9 28.5 18.3zm0-49.4-60.7-39.6-46.6 30.2 15.2 9.9 31.9-21 17.5 11.4-49.2 31.9-28.5-18.3v-27.6l59.6-38.8 60.8 39.7z"/></svg>

<svg xmlns="http://www.w3.org/2000/svg" viewBox="0 0 226.8 226.8"><path class="st0" d="M113.4 0C50.8 0 0 50.8 0 113.4 0 176 50.8 226.8 113.4 226.8c62.6 0 113.4-50.8 113.4-113.4C226.8 50.8 176 0 113.4 0zm60.2 149.6L114 188.4l-60.7-39.7v-22.3L114 166l46.5-30.2-15.2-9.9-31.9 21-17.5-11.4 49.2-31.9 28.5 18.3v27.7zm0-49.4l-60.7-39.6-46.6 30.2 15.2 9.9 31.9-21 17.5 11.4L81.7 123l-28.5-18.3V77.1l59.6-38.8L173.6 78v22.2z"/></svg>
